Sources/FrostedUI/Resources/Icons.xcassets/messageNotification12.imageset/message-notification-12.svg

<svg width="12" height="12" viewBox="0 0 12 12" fill="none" xmlns="http://www.w3.org/2000/svg" data-fui-icon="true">
  <path
    d="M6.375 1.125C6.78921 1.125 7.125 1.46079 7.125 1.875C7.125 2.28921 6.78921 2.625 6.375 2.625H2.375C2.23693 2.625 2.125 2.73693 2.125 2.875V8.125C2.125 8.26308 2.23692 8.375 2.375 8.375H4.32617C4.58312 8.37505 4.83281 8.45436 5.04199 8.60059L5.12891 8.66699L6.00098 9.39844L6.89062 8.66211L6.97754 8.59668C7.18563 8.4529 7.43312 8.37509 7.6875 8.375H9.625C9.76309 8.375 9.875 8.26309 9.875 8.125V6.125C9.875 5.71079 10.2108 5.375 10.625 5.375C11.0392 5.375 11.375 5.71079 11.375 6.125V8.125C11.375 9.09151 10.5915 9.875 9.625 9.875H7.77832L6.79785 10.6865C6.33328 11.0712 5.66072 11.0693 5.19824 10.6816L4.23535 9.875H2.375C1.40851 9.875 0.625 9.09152 0.625 8.125V2.875C0.625 1.9085 1.4085 1.125 2.375 1.125H6.375ZM3.75 4.8125C4.12971 4.8125 4.4375 5.12034 4.4375 5.5C4.4375 5.87966 4.12971 6.1875 3.75 6.1875C3.37029 6.1875 3.0625 5.87966 3.0625 5.5C3.0625 5.12034 3.37029 4.8125 3.75 4.8125ZM6 4.8125C6.37967 4.8125 6.6875 5.12033 6.6875 5.5C6.6875 5.87967 6.37967 6.1875 6 6.1875C5.62033 6.1875 5.3125 5.87967 5.3125 5.5C5.3125 5.12033 5.62033 4.8125 6 4.8125ZM9.5 0.625C10.8117 0.625 11.875 1.68832 11.875 3C11.875 4.31168 10.8117 5.375 9.5 5.375C8.18834 5.375 7.125 4.31168 7.125 3C7.125 1.68832 8.18834 0.625 9.5 0.625ZM9.5 2.125C9.01676 2.125 8.625 2.51675 8.625 3C8.625 3.48325 9.01676 3.875 9.5 3.875C9.98324 3.875 10.375 3.48325 10.375 3C10.375 2.51675 9.98324 2.125 9.5 2.125Z"
    fill="currentColor"
  />
</svg>

<svg xmlns="http://www.w3.org/2000/svg" width="12" height="12" fill="none" data-fui-icon="true" viewBox="0 0 12 12"><path fill="currentColor" d="M6.375 1.125a.75.75 0 0 1 0 1.5h-4a.25.25 0 0 0-.25.25v5.25c0 .138.112.25.25.25h1.951c.257 0 .507.08.716.226l.087.066.872.731.89-.736.087-.065a1.25 1.25 0 0 1 .71-.222h1.937a.25.25 0 0 0 .25-.25v-2a.75.75 0 0 1 1.5 0v2a1.75 1.75 0 0 1-1.75 1.75H7.778l-.98.812a1.25 1.25 0 0 1-1.6-.005l-.963-.807h-1.86a1.75 1.75 0 0 1-1.75-1.75v-5.25c0-.966.784-1.75 1.75-1.75zM3.75 4.813a.688.688 0 1 1 0 1.375.688.688 0 0 1 0-1.375m2.25 0a.688.688 0 1 1 0 1.375.688.688 0 0 1 0-1.375M9.5.625a2.375 2.375 0 1 1 0 4.75 2.375 2.375 0 0 1 0-4.75m0 1.5a.875.875 0 1 0 0 1.75.875.875 0 0 0 0-1.75"/></svg>
